!!!OTL: Folk song Number 10
!!!CNT: Chinese
**kern
*k[f#c#g#d#]
*M2/4
=1
(8g#
16e
16f#)
(8.b
16ee)
=2
(16e
16f#
16e
16c#)
(8B
8G#)
=3
(8g#
16f#
16g#)
(16b
16ee
16B
16c#)
=4
2e
=5
8g#
(16e
16f#)
(8.b
16ee)
=6
(16e
16f#
16e
16c#)
(8B
8G#)
=7
(8.B
16g#)
(8f#
16g#
16c#)
=8
2B
==
*-
!!!PPR: Yin yueh ch'u pan she
!!!OPR: Chung-kuo min ko Chung-kuo yin yueh yen chiu so pien [Chinese folk songs]
!!!OCL: Chung-kuo yin yueh yen chiu so
!!!PPP: Beijing, China
!!!PDT: 1959///
!!!SML: Edward Johnson Library, University of Toronto M1804.C4694C5
!!!PPG: p.7
!!!ENC: David Huron
!!!EMD: Paul von Hippel updated this file in the following ways (1998/9/29/):
!!!EMD:  (1) changed the representation of slurs from curly braces to parentheses 
!!!EMD:  (2) changed freeform comments into reference records and tandem interpretations
!!!EMD:  (3) corrected the author, title, author, and call number of the printed source 
!!!EEV: Version 2.0
